X:124061
T:79th Farewell to Gibraltor w/ Bass Drum
C:PM J MacDonald
H:
B:
O:Kevin Fraser
Z:Kevin Fraser
Q:1/4=79
K:Dmaj
M:2/4
L:1/16
R:March
U:V = !accent!
V:B clef=none name="Bass" " gstem=up stem=down dyn=up " 
V:M transpose=2 name="Melody" " gstem=up stem=down " 
V:H transpose=2 name="Harmony" " gstem=up stem=down " 
V:C transpose=2 name="C-Harmony" " gstem=up stem=down " 
V:S gstem=up stem=down dyn=up stafflines=1 clef=perc middle=G name="Snare" sname="Snare"" sname=snare
V:T clef=none name="Tenor" " gstem=up stem=down dyn=up " 
V:BB clef=bass octave=-2 transpose=1 name="Brass Bass" sname="Bass"
V:Tuba clef=bass octave=-2 transpose=1 name="Tuba" sname="Tuba"
V:BC clef=treble transpose=1 name="Brass Chord" sname="Chord 1" 
V:Trombone clef=treble transpose=1 name="Trombone" sname="Trombone" 
V:BD clef=treble transpose=1 name="Brass Chord 2" sname="Chord 2" 
V:Trumpet clef=treble transpose=1 name="Trumpet" sname="Trumpet" 
%%MIDI gracedivider 40
% %Score {M H BC BD BB }
V:B
%%MIDI channel 10
%%MIDI program 0
%%MIDI drummap F 36 %bass drum 1
%%MIDI drummap c 38 %acoustic snare
%%MIDI drummap ^D 44 %pedal hi-hat
%%MIDI drummap ^f 51 %ride cymbal 1
%%MIDI drummap ^g 42 %closed hi hat
%%MIDI drummap ^a 49 %crash cymbal 1
%%MIDI drummap ^b 52 %chinese cymbal
%%MIDI drummap e 50 %high tom
%%MIDI drummap d 48 %hi mid tom
%%MIDI drummap B 45 %low tom
%%MIDI drummap A 41 %low floor tom
%%MIDI Channel 10
[L:1/16]A4 A4 | A4 z4 | A4 A4 | A4 z2 
[|:z2 | A4 A4 | A4 A4 | A4 A4 | A4 A4 | 
A4 A4 | A4 A4 | A4 A4 | A2 A2 A2 :| 
[|:z2 |A4 A4 | A4 A4 | A4 A4 | A4 A4 | 
A4 A4 | A4 A4 | A4 A4 | A2 A2 A2 :| 
[|:z2 |A4 A4 | A4 A4 | A4 A4 | A4 A4 | 
A4 A4 | A4 A4 | A4 A4 | A2 A2 A2 :| 
[|:z2 |A4 A4 | A4 A4 | A4 A4 | A4 A4 | 
A4 A4 | A4 A4 | A4 A4 | A2 A2 A2 :| 
V:Tuba
z2 z2 | z2 z2 | z2 z2   | z3
%%MIDI program 59
[V:Tuba][K:FMix][|:!ff! z | B,2 F,2| B,2 F2 | B,2 D2 | F2 F2 |
[V:Tuba]      | B,2 F,2| B,2 B,2 | F,2 F,2 | B,B, B, :|]
[V:Tuba][|: z | B,z zB, | z2 _A2  |  B,z zB,  | z2 _A2 |
[V:Tuba]      | B,z zB, | z2 _A2  |  B,z _A2  | B,B, B,  :|]
[V:Tuba][|: B, | B,2 F2 | G2 A2  |  B,2 D2  | E2 ^E2 |
[V:Tuba]      | G2 B,2 | F2 E2 |E2 F2| B,B, B,:|]
[V:Tuba][|: z | B,2 B2 | B2 F2  |  B,2 E2  | G2 E2 |
[V:Tuba]      | G2 B,2 | F2 E2 |E2 F2| B,B, B,:|]
V:Trombone 
!f!z2 z2 | z2 z2 | z2 z2    | z3
%%MIDI program 58
[V:Trombone][K:FMix][|: [B,D]/>[CE]/| [B,D]2 [B,D]2 | z[B,D] z[B,D] | z[B,D] z[B,D] | z [A,C] [A,C][B,D]/>[CE]/ | 
[V:Trombone]| [B,D]2 z[B,D] | z[B,D]  z[B,D] | [B,D]2 [A,C]2 | [B,D][F,B,] [F,B,] :| 
[V:Trombone][|: z| [B,F]z z[B,F] | z2 [C_F]2 | [B,F]z z[B,F]  | z2 [C_F]2 | 
[V:Trombone]     | [B,F]z z[B,F] | z2 [C_F]2 | [B,F]z [AC]2  | [B,D][FB] [FB] :| 
[V:Trombone][|: [DG]| [EB]3[DB]  |([C'E][DB])[AC]2 | [B,D]2 DB, | [A,E]2 [A,^E]2 |
[V:Trombone]     | [B,E]4 | D2 C2 | C2 DC | B,F F :| 
[V:Trombone][|: z| [B,D]2 [B,D]2  |z[B,D] z[B,D] | z[B,E] z[B,E] | z[B,E] [B,E][Bd] |
[V:Trombone]     | [Be]2 z [Bd]| z[Ac] z[Ac]|[cg]2 [Ac]2 |[B,D][FB][FB] :| 
V:Trumpet
z2 z2 | z2 z2 | z2 z2  | z3  
%%MIDI program 66
[V:Trumpet][K:FMix][L:1/8][|: !mf!d/>e/ | d4- | d2 Bd | dd/>B/ d/>e/d/>B/ | Ac cd/>e/ |
[V:Trumpet]     |  d4- | d2 Bd | dd/>B/ d/>e/d/>B/ | BB B :|
[V:Trumpet][|: z| [B]z z[B] | z2 [_A]2 | [B]z z[B]  | z2 [_A]2 | 
[V:Trumpet]     | [B]z z[B] | z2 [_A]2 | [B]z [_A]2  | [_A][B] [B] :|
[V:Trumpet][|: z| [B]3c  |BA E2 | E>D EG | A3 B/>A/|
[V:Trumpet]     | [B]3c  |BA E2 | G>F GA | BBB :|
[V:Trumpet][|: z| D4- | D2 BD | E>D EG | E>D BG |
[V:Trumpet]     | E2 G2 | F2 BD |DD/>B/ D/>E/D/>B/ | BB B :|
V:M
z2 z2 | z2 z2 | z2 z2  | z3
%%MIDI Channel 15
%%MIDI program 110
[V:M][L:1/16][|:!pp!{g} c>d | {g}e2>f2 {gef} e2c2 |{g}A4 {GdGe}A2a2 | {gfg}f2{g}e>c {g}e>f{g}e>d | {gcd}c2{g}B2 {GdGe}B2{g}c>d |
[V:M]          | {g}e2>f2 {gef} e2c2 |{g}A4 {GdGe}A2a2 | {gfg}f2{g}e>c {g}e>fa>e    |{gcd}c2{e}A2  {GAG}A2    :|]
[V:M][|: a2 | {gfg}f2{g}e>c {g}e>fa>e | {g}f<ae>c {gBd}B2a2 | {gfg}f2{g}e>c {g}e>fa>e | {gfg}f2{g}B2 {GdGe}B2a2 |
[V:M]       | {gfg}f2{g}e>c {g}e>fa>e | {g}f<ae>c {gBd}B2a2 | {gfg}f2{g}e>c {g}e>fa>e    |{gcd}c2{e}A2  {GAG}A2    :|]
[V:M][|:{gcd}c>B | {g}A2>B2 {GdG}c2a2 | {gfg}f2{g}e>c {gBd}B2{g}c>B | {g}A>B{g}c>d {g}e>f{g}e>c | {gfg}f2{g}B2 {GdGe}B2{gcd}c>B  |
[V:M]| {g}A2>B2 {GdG}c2a2 | {gfg}f2{g}e>c {gBd}B2{ag}a2 |{gfg}f2{g}e>c {g}e>fa>e    |{gcd}c2{e}A2  {GAG}A2    :|]
[V:M][|:{g}c>d | {g}e2>f2     {gef}e2c2 | {g}e4 {GdG}e2a2  | {gfg}f2>e2  {g}f2{ag}a2 | {gfg}f2>e2  {g}c2a2   |
[V:M]            |{gfg}f2e<c {gcd}c2B?<{d}A | {g}B<{e}A{g}B>{d}c {gef}e2a2 | {gfg}f2{g}e>c {g}e>fa>e    |{gcd}c2{e}A2  {GAG}A2    :|]

